icon/gr/edge.svg

<svg xmlns="http://www.w3.org/2000/svg" viewBox="0 0 24 24" height="1em" width="1em">
  <path fill="#00A1F1" fill-rule="evenodd" d="M5.487,6.3566 C2.632,8.1336 1,10.6596 1,10.6596 C1,10.6596 1.423,5.3636 5.487,2.2646 C7.103,1.0326 9.313,-0.0004 12.285,-0.0004 C13.402,-0.0004 15.744,0.1946 17.853,1.4946 C19.962,2.7946 20.814,3.8846 21.764,5.4786 C22.174,6.1666 22.508,7.0506 22.716,7.9036 C23.107,9.5016 23.154,11.4116 23.154,11.4116 L23.154,13.9286 L8.081,13.9286 C8.081,13.9286 7.713,18.9936 14.645,18.9936 C17.056,18.9936 17.9,18.6146 18.693,18.3796 C19.934,18.0126 21.133,17.1926 21.133,17.1926 L21.135,22.2526 C21.135,22.2526 18.298,23.9996 14.012,23.9996 C12.805,23.9996 11.533,23.8986 10.306,23.5006 C9.234,23.1526 6.99,22.2146 5.487,20.0166 C4.956,19.2386 4.38,18.2036 4.094,17.1926 C3.786,16.0996 3.79,15.0376 3.79,14.4526 C3.79,12.2646 4.537,10.1756 5.834,8.6656 C7.515,6.7096 9.638,5.8476 9.638,5.8476 C9.638,5.8476 8.947,6.6546 8.521,7.6586 C8.096,8.6626 7.979,9.6726 7.979,9.6726 L16.49,9.6726 C16.49,9.6726 16.988,4.5866 11.675,4.5866 C9.672,4.5866 7.213,5.2816 5.487,6.3566"/>
</svg>

<svg xmlns="http://www.w3.org/2000/svg" width="24" height="24"><path fill="#00A1F1" fill-rule="evenodd" d="M5.487 6.357C2.632 8.134 1 10.66 1 10.66s.423-5.296 4.487-8.395C7.103 1.033 9.313 0 12.285 0c1.117 0 3.459.195 5.568 1.495 2.109 1.3 2.961 2.39 3.911 3.984.41.688.744 1.572.952 2.425.391 1.598.438 3.508.438 3.508v2.517H8.081s-.368 5.065 6.564 5.065c2.411 0 3.255-.38 4.048-.614 1.241-.367 2.44-1.187 2.44-1.187l.002 5.06S18.298 24 14.012 24c-1.207 0-2.479-.101-3.706-.5-1.072-.347-3.316-1.285-4.819-3.483-.531-.778-1.107-1.813-1.393-2.824-.308-1.093-.304-2.155-.304-2.74 0-2.188.747-4.277 2.044-5.787C7.515 6.71 9.638 5.848 9.638 5.848s-.691.807-1.117 1.81c-.425 1.005-.542 2.015-.542 2.015h8.511s.498-5.086-4.815-5.086c-2.003 0-4.462.695-6.188 1.77"/></svg>
